X:43
T:Frost is All Over No. 2
Z: id:dc-jig-37
M:6/8
L:1/8
K:D Major
B|AFD DFA|B3 Bcd|ABA F2E|FEE EFG|!
AFD DFA|B3 Bcd|ABA F2E|FDD D2:|!
g|f2d dcd|f2d dcd|fef def|g3 efg|!
f2d B2d|A2d F2G|ABA F2E|FDD D2:|!

